src/assets/images/toolbox/javascript.svg

<svg
  width="32"
  height="32"
  viewBox="0 0 32 32"
  fill="transparent"
  xmlns="http://www.w3.org/2000/svg">
  <path
    fill="#F7DF1E"
    d="M0 0H32V32H0V0Z"
  />
  <path
    fill="black"
    d="M8.414 26.7415L10.8628 25.2595C11.3353 26.0971 11.765 26.8059 12.7959 26.8059C13.784 26.8059 14.4071 26.4194 14.4071 24.9159V14.6911H17.4142V24.9584C17.4142 28.073 15.5885 29.4907 12.9248 29.4907C10.5191 29.4907 9.12287 28.2451 8.414 26.7415ZM19.0476 26.4193L21.4961 25.0016C22.1407 26.0543 22.9785 26.8275 24.4605 26.8275C25.7066 26.8275 26.5011 26.2045 26.5011 25.3452C26.5011 24.3142 25.6849 23.949 24.3101 23.3477L23.5585 23.0252C21.3889 22.1019 19.9498 20.9419 19.9498 18.4931C19.9498 16.2376 21.6681 14.5191 24.3533 14.5191C26.265 14.5191 27.6398 15.1851 28.6278 16.925L26.2863 18.4287C25.7706 17.5051 25.2124 17.14 24.3531 17.14C23.4724 17.14 22.9139 17.6985 22.9139 18.4287C22.9139 19.3309 23.4724 19.6962 24.7611 20.2547L25.5129 20.5769C28.0691 21.6725 29.5083 22.7894 29.5083 25.3024C29.5083 28.0091 27.3818 29.4911 24.5249 29.4911C21.7325 29.4911 19.9282 28.1593 19.0476 26.4193Z"
  />
</svg>

<svg xmlns="http://www.w3.org/2000/svg" width="32" height="32" fill="transparent" xmlns:v="https://vecta.io/nano">
  <path fill="#f7df1e" d="M0 0H32V32H0V0Z" />
  <path fill="#000"
    d="M8.414 26.742l2.449-1.482c.473.838.902 1.546 1.933 1.546.988 0 1.611-.387 1.611-1.89V14.691h3.007v10.267c0 3.115-1.826 4.532-4.489 4.532-2.406 0-3.802-1.246-4.511-2.749zm10.634-.322l2.448-1.418c.645 1.053 1.482 1.826 2.964 1.826 1.246 0 2.041-.623 2.041-1.482 0-1.031-.816-1.396-2.191-1.997l-.752-.322c-2.17-.923-3.609-2.083-3.609-4.532 0-2.255 1.718-3.974 4.404-3.974 1.912 0 3.287.666 4.275 2.406l-2.341 1.504c-.516-.924-1.074-1.289-1.933-1.289-.881 0-1.439.558-1.439 1.289 0 .902.558 1.268 1.847 1.826l.752.322c2.556 1.096 3.995 2.213 3.995 4.726 0 2.707-2.126 4.189-4.983 4.189-2.792 0-4.597-1.332-5.477-3.072z" />
</svg>
